src/icon/entity/chat-photo/icon_chat-photo_m_black.svg

<svg xmlns="http://www.w3.org/2000/svg" width="24" height="24" viewBox="0 0 24 24"><g fill="none" fill-rule="evenodd"><polygon points="0 0 24 0 24 24 0 24"/><path fill="#0B1F35" fill-rule="nonzero" d="M6,8 C5.44771525,8 5,8.44771525 5,9 L5,19 C5,19.5522847 5.44771525,20 6,20 L21,20 C21.5522847,20 22,19.5522847 22,19 L22,9 C22,8.44771525 21.5522847,8 21,8 L6,8 Z M6,7 L21,7 C22.1045695,7 23,7.8954305 23,9 L23,19 C23,20.1045695 22.1045695,21 21,21 L6,21 C4.8954305,21 4,20.1045695 4,19 L4,9 C4,7.8954305 4.8954305,7 6,7 Z"/><circle cx="8" cy="11" r="1" fill="#0B1F35" fill-rule="nonzero" opacity=".3"/><path fill="#0B1F35" fill-rule="nonzero" d="M10.6545082,18 L7.48679361,18 C7.21065124,18 6.98679361,17.7761424 6.98679361,17.5 C6.98679361,17.3740066 7.03435999,17.2526578 7.11997874,17.1602253 L9.65685396,14.4214588 C10.0321587,14.0162862 10.6648606,13.9920736 11.0700331,14.3673784 C11.0887429,14.384709 11.1067829,14.402749 11.1241135,14.4214588 L12.3498971,15.7447935 L14.7836426,12.5074249 C15.1155124,12.0659718 15.7424145,11.9771369 16.1838677,12.3090066 C16.2590041,12.3654916 16.325801,12.4322886 16.382286,12.5074249 L19.9096677,17.1995483 C20.0756025,17.4202749 20.0311851,17.733726 19.8104585,17.8996608 C19.7238293,17.9647858 19.6183852,18 19.5100068,18 L10.6545082,18 Z" opacity=".3"/><path fill="#0B1F35" fill-rule="nonzero" d="M20,7 L20,4.90909091 C20,3.85472911 19.120008,3 18.0344828,3 L2.96551724,3 C1.87999204,3 1,3.85472911 1,4.90909091 L1,15.0909091 C1,16.1452709 1.87999204,17 2.96551724,17 L4.27586207,17 L4.27586207,16 L2.96551724,16 C2.42586321,16 2,15.5863625 2,15.0909091 L2,4.90909091 C2,4.41363747 2.42586321,4 2.96551724,4 L18.0344828,4 C18.5741368,4 19,4.41363747 19,4.90909091 L19,7 L20,7 Z M20,7 L20,4.90909091 C20,3.85472911 19.120008,3 18.0344828,3 L2.96551724,3 C1.87999204,3 1,3.85472911 1,4.90909091 L1,15.0909091 C1,16.1452709 1.87999204,17 2.96551724,17 L4.27586207,17 L4.27586207,16 L2.96551724,16 C2.42586321,16 2,15.5863625 2,15.0909091 L2,4.90909091 C2,4.41363747 2.42586321,4 2.96551724,4 L18.0344828,4 C18.5741368,4 19,4.41363747 19,4.90909091 L19,7 L20,7 Z"/></g></svg>

<svg xmlns="http://www.w3.org/2000/svg" width="24" height="24" viewBox="0 0 24 24"><g fill="none" fill-rule="evenodd"><path d="M0 0h24v24H0z"/><path fill="#0B1F35" fill-rule="nonzero" d="M6 8a1 1 0 0 0-1 1v10a1 1 0 0 0 1 1h15a1 1 0 0 0 1-1V9a1 1 0 0 0-1-1H6zm0-1h15a2 2 0 0 1 2 2v10a2 2 0 0 1-2 2H6a2 2 0 0 1-2-2V9a2 2 0 0 1 2-2z"/><circle cx="8" cy="11" r="1" fill="#0B1F35" fill-rule="nonzero" opacity=".3"/><path fill="#0B1F35" fill-rule="nonzero" d="M10.655 18H7.487a.5.5 0 0 1-.367-.84l2.537-2.739a1 1 0 0 1 1.467 0l1.226 1.324 2.434-3.238a1 1 0 0 1 1.598 0L19.91 17.2a.5.5 0 0 1-.4.8h-8.855z" opacity=".3"/><path fill="#0B1F35" fill-rule="nonzero" d="M20 7V4.91C20 3.854 19.12 3 18.034 3H2.966C1.88 3 1 3.855 1 4.91v10.18C1 16.146 1.88 17 2.966 17h1.31v-1h-1.31c-.54 0-.966-.414-.966-.91V4.91c0-.496.426-.91.966-.91h15.068c.54 0 .966.414.966.91V7h1zm0 0V4.91C20 3.854 19.12 3 18.034 3H2.966C1.88 3 1 3.855 1 4.91v10.18C1 16.146 1.88 17 2.966 17h1.31v-1h-1.31c-.54 0-.966-.414-.966-.91V4.91c0-.496.426-.91.966-.91h15.068c.54 0 .966.414.966.91V7h1z"/></g></svg>
